X:1
T:Title
%%score { ( 1 4 ) | ( 2 3 ) }
L:1/8
Q:1/4=110
M:3/4
K:F
V:1 treble nm="Grand Piano"
V:4 treble 
V:2 bass 
V:3 bass 
V:1
 c2 d2 c2 | [Ac]2 B2 [CFA]2 | [CFA]4 [B,EG]2 | [A,CF]6 | [A,CF]2 [A,CF]2 [B,F]2 | %5
w: Carey~Boggess * *|||||
 [_A,=B,F]4 [=A,CF]2 | F2 z2 z2 | G4 z2 | c2 d2 c2 | A4 c2 | [^Fd]4 [FA]2 | B6 | B2 A2 G2 | %13
w: ||||||||
 A2 z2 z2 | z6 | F6 |[M:1/4] c2 |[M:3/4] G2 z2 z2 | c2- [Gc]2 [Fc]2 | c2- [A,Fc]2 [Ec]>d | %20
w: |||||||
[M:2/4] c4 |[M:1/4] c2 |[M:3/4] G2 z2 z2 | c2- [Gc]2 [Fc]2 | c2- [A,Fc]2 [Ec]>d | c6 | c2 d2 c2 | %27
w: |||||||
 A4 c2 | [^Fd]4 [FA]2 | B6 | B2 A2 G2 | A2 z2 z2 | z6 | F6 |] %34
w: |||||||
V:2
 [F,A,F]2 [F,B,F]2 [F,A,F]2 | z2 G2 F,2 | C,4 C,2 | F,6 | F,2 _E,2 D,2 | ^C,4 =C,2 | z2 E2 G,,2 | %7
 [C,E,C]4 z2 | [F,A,F]2 [F,B,F]2 [F,A,F]2 | [F,CF]4 [F,A,F]2 | [D,A,]4 [D,D]2 | [G,DG]6 | C6 | %13
 [F,C]2 [F,B,]2 [F,A,]2 | [C,G,]4 [C,B,C]2 | [F,A,C]6 |[M:1/4] z2 |[M:3/4] B,2 z2 [C,G,]2 | %18
 z2 B,2 [C,A,]2 | G,2 z2 z z/ E/ |[M:2/4] [F,A,F]4 |[M:1/4] z2 |[M:3/4] B,2 z2 [C,G,]2 | %23
 z2 B,2 [C,A,]2 | G,2 z2 z z/ E/ | [F,A,F]6 | [F,A,F]2 [F,B,F]2 [F,A,F]2 | [F,CF]4 [F,A,F]2 | %28
 [D,A,]4 [D,D]2 | [G,DG]6 | C6 | [F,C]2 [F,B,]2 [F,A,]2 | [C,G,]4 [C,B,C]2 | [F,A,C]6 |] %34
V:3
 x6 | [F,C]4 z2 | x6 | x6 | x6 | x6 | G,,4 z2 | x6 | x6 | x6 | x6 | x6 | x6 | x6 | x6 | x6 | %16
[M:1/4] x2 |[M:3/4] C,4 z2 | C,4 z2 | C,4 [C,B,]2 |[M:2/4] x4 |[M:1/4] x2 |[M:3/4] C,4 z2 | %23
 C,4 z2 | C,4 [C,B,]2 | x6 | x6 | x6 | x6 | x6 | x6 | x6 | x6 | x6 |] %34
V:4
 x6 | x6 | x6 | x6 | x6 | x6 | [G,=B,]4 [F,B,F]2 | x6 | x6 | x6 | x6 | x6 | x6 | %13
 c2- [Gc-]2 [Fc-]2 | [Ec]4 E2 | x6 |[M:1/4] x2 |[M:3/4] c2- [A,Fc]2 [Ec]2 | [CA]2 z2 z2 | %19
 E2 z2 z2 |[M:2/4] x4 |[M:1/4] x2 |[M:3/4] c2- [A,Fc]2 [Ec]2 | [CA]2 z2 z2 | E2 z2 z2 | x6 | x6 | %27
 x6 | x6 | x6 | x6 | c2- [Gc-]2 [Fc-]2 | [Ec]4 E2 | x6 |] %34

